X:5
T:Brekkvalsen
R:vals
Z:2001 Brian Wilson <baab@mediaone.net>
M:3/4
L:1/8
K:A
||: "A"e3 fed | "A/E"c3 Ace | "A"a2c2d2 | "A/C#"e3cea
| "E"g2B2c2 | "D"d3cdf | "A"e2A2B2 | "A/E"c3BAc
| "A"e3 fed | "A/E"c3 Ace | "A"a2c2d2 | "A/C#"e3cea
| "E"g2B2c2 | "E/B"d3BGB | "A"(A2 "A/E"A)B"A/C#"AG |1 "A"A4c2 :|2 "A"A4 E2 |
|: "A"c3dcB | "A/E"A2G2A2 | "Bm/D"B2c2d2 | "Bm"f4 f2
| "E"B3cBA | "E/B"G2F2G2 | "A"A4c2 | "A/E"E4 E2
| "A"c3dcB | "A/E"A2G2A2 | "Bm/D"B2c2d2 | "Bm"f4 f2
| "E"g3agf | "E/B"e2 ^defg | "A"(a2 "A/E"a)b"A/C#"ag|1 "A"a4e2 :|2 "A"a4 c2 ||
